icons/community_meeting_fill.svg

<svg width="48" height="48" viewBox="0 0 48 48" fill="none" xmlns="http://www.w3.org/2000/svg">
<path fill-rule="evenodd" clip-rule="evenodd" d="M42 17C42 20.1693 39.5427 22.7647 36.4295 22.9849L33.3787 26.0356C34.2339 27.4815 34.6184 29.4018 34.8077 31.537C35 33.7058 35 36.2422 35 38.9655V40H33V39C33 36.2364 32.9992 33.785 32.8155 31.7137C32.6547 29.9002 32.3606 28.4865 31.8732 27.4611C30.6758 27.301 29.5837 26.6985 28.6469 25.9568C27.5427 25.0827 26.5611 23.9424 25.753 22.842C24.9408 21.736 24.2788 20.6358 23.821 19.8153C23.7595 19.7052 23.7016 19.5999 23.6475 19.5001C22.3043 20.43 20.4929 21 18.5 21C14.3579 21 11 18.5376 11 15.5C11 12.7074 13.8381 10.4009 17.5146 10.047C18.7975 7.69212 22.3359 6 26.5 6C31.208 6 35.1161 8.163 35.869 11.0014C35.9126 11.0005 35.9562 11 36 11C39.3137 11 42 13.6863 42 17ZM30.027 17.5729C28.9365 17.8484 27.7463 18 26.5 18C26.0657 18 25.6382 17.9816 25.2194 17.946C25.1949 17.9821 25.1698 18.018 25.1443 18.0537C25.2521 18.2624 25.3943 18.5305 25.5675 18.8408C25.999 19.6141 26.6165 20.6389 27.365 21.6582C27.4018 21.7083 27.4389 21.7583 27.4762 21.8082L27.4761 21.6621C28.5812 21.6612 29.7407 21.0648 30.7032 20.3544C30.7769 20.3 30.8487 20.2456 30.9182 20.1914C30.4324 19.4193 30.1175 18.5288 30.027 17.5729ZM32.2527 21.6862C32.7571 22.09 33.3281 22.4141 33.9465 22.6394L31.3278 25.2581C30.8625 25.0711 30.3812 24.779 29.8882 24.3887C29.5459 24.1177 29.2106 23.8092 28.8853 23.4752C30.0685 23.1688 31.1152 22.5362 31.8909 21.9636C32.0168 21.8706 32.1376 21.7778 32.2527 21.6862Z" fill="black"/>
<path d="M15.5041 28.0023C16.8848 28.0012 18.0032 26.881 18.002 25.5003C18.0009 24.1196 16.8807 23.0012 15.5 23.0023C14.1193 23.0035 13.0009 24.1237 13.002 25.5044C13.0032 26.8851 14.1234 28.0035 15.5041 28.0023Z" fill="black"/>
<path d="M8.50409 32.0023C9.88481 32.0012 11.0032 30.881 11.002 29.5003C11.0009 28.1196 9.88071 27.0012 8.5 27.0023C7.11929 27.0035 6.00092 28.1237 6.00205 29.5044C6.00318 30.8851 7.12338 32.0035 8.50409 32.0023Z" fill="black"/>
<path d="M28.002 29.5001C28.0032 30.8808 26.8848 32.001 25.5041 32.0021C24.1234 32.0032 23.0032 30.8849 23.002 29.5042C23.0009 28.1234 24.1193 27.0032 25.5 27.0021C26.8807 27.001 28.0009 28.1193 28.002 29.5001Z" fill="black"/>
<path d="M15 29C16.1046 29 17 29.8954 17 31V33H19C20.1046 33 21 33.8954 21 35C21 36.1046 20.1046 37 19 37H15C13.8954 37 13 36.1046 13 35V31C13 29.8954 13.8954 29 15 29Z" fill="black"/>
<path d="M10 35C10 33.8954 9.10457 33 8 33C6.89543 33 6 33.8954 6 35V40C6 41.1046 6.89543 42 8 42H12C13.1046 42 14 41.1046 14 40C14 38.8954 13.1046 38 12 38H10V35Z" fill="black"/>
<path d="M26 33C24.8954 33 24 33.8954 24 35V38H22C20.8954 38 20 38.8954 20 40C20 41.1046 20.8954 42 22 42H26C27.1046 42 28 41.1046 28 40V35C28 33.8954 27.1046 33 26 33Z" fill="black"/>
</svg>

<svg
  xmlns="http://www.w3.org/2000/svg"
  width="24"
  height="24"
  viewBox="0 0 24 24"
  fill="none"
  stroke="currentColor"
  stroke-width="2"
  stroke-linecap="round"
  stroke-linejoin="round"
>
  <path
    fill-rule="evenodd"
    d="M42 17a6 6 0 0 1-5.57 5.985l-3.051 3.05c.855 1.447 1.24 3.367 1.429 5.502.192 2.169.192 4.705.192 7.429V40h-2v-1c0-2.764 0-5.215-.184-7.286-.161-1.814-.455-3.227-.943-4.253-1.197-.16-2.29-.762-3.226-1.504-1.104-.874-2.086-2.015-2.894-3.115a29 29 0 0 1-2.105-3.342c-1.344.93-3.155 1.5-5.148 1.5-4.142 0-7.5-2.462-7.5-5.5 0-2.793 2.838-5.1 6.515-5.453C18.797 7.692 22.335 6 26.5 6c4.708 0 8.616 2.163 9.369 5.001L36 11a6 6 0 0 1 6 6m-11.973.573c-1.09.275-2.28.427-3.527.427q-.652 0-1.28-.054l-.076.108c.108.208.25.477.424.787a27 27 0 0 0 1.908 2.967v-.146c1.105 0 2.265-.597 3.227-1.308q.111-.08.215-.163a5.96 5.96 0 0 1-.891-2.618m2.226 4.113a6 6 0 0 0 1.694.953l-2.62 2.62q-.698-.283-1.439-.87a11 11 0 0 1-1.003-.914c1.183-.306 2.23-.939 3.006-1.511q.19-.14.362-.278"
    clip-rule="evenodd"
  />
  <path d="M15.504 28.002a2.5 2.5 0 1 0-.004-5 2.5 2.5 0 0 0 .004 5" />
  <path d="M8.504 32.002a2.5 2.5 0 1 0-.004-5 2.5 2.5 0 0 0 .004 5" />
  <path d="M28.002 29.5a2.5 2.5 0 1 1-5 .004 2.5 2.5 0 0 1 5-.004" />
  <path d="M15 29a2 2 0 0 1 2 2v2h2a2 2 0 1 1 0 4h-4a2 2 0 0 1-2-2v-4a2 2 0 0 1 2-2" />
  <path d="M10 35a2 2 0 1 0-4 0v5a2 2 0 0 0 2 2h4a2 2 0 1 0 0-4h-2z" />
  <path d="M26 33a2 2 0 0 0-2 2v3h-2a2 2 0 1 0 0 4h4a2 2 0 0 0 2-2v-5a2 2 0 0 0-2-2" />
</svg>
